assets/svg/icon_createpost_shedule.svg

<svg width="24" height="24" viewBox="0 0 24 24" fill="none" xmlns="http://www.w3.org/2000/svg">
<path d="M4.93726 19.0631L5.36152 18.6389H5.36152L4.93726 19.0631ZM19.0627 6.53765L19.487 6.11338V6.11338L19.0627 6.53765ZM19.3944 10.5082C19.3985 10.8395 19.6705 11.1048 20.0018 11.1007C20.3332 11.0966 20.5984 10.8247 20.5943 10.4934L19.3944 10.5082ZM8.99371 20.5959C9.32507 20.5994 9.5965 20.3336 9.59997 20.0022C9.60344 19.6709 9.33764 19.3994 9.00629 19.396L8.99371 20.5959ZM7.4 5.60039C7.4 5.93176 7.66863 6.20039 8 6.20039C8.33137 6.20039 8.6 5.93176 8.6 5.60039H7.4ZM8.6 4.40039C8.6 4.06902 8.33137 3.80039 8 3.80039C7.66863 3.80039 7.4 4.06902 7.4 4.40039H8.6ZM15.4 5.60039C15.4 5.93176 15.6686 6.20039 16 6.20039C16.3314 6.20039 16.6 5.93176 16.6 5.60039H15.4ZM16.6 4.40039C16.6 4.06902 16.3314 3.80039 16 3.80039C15.6686 3.80039 15.4 4.06902 15.4 4.40039H16.6ZM4.4 9.00039C4.06863 9.00039 3.8 9.26902 3.8 9.60039C3.8 9.93176 4.06863 10.2004 4.4 10.2004V9.00039ZM19.6 10.2004C19.9314 10.2004 20.2 9.93176 20.2 9.60039C20.2 9.26902 19.9314 9.00039 19.6 9.00039V10.2004ZM16 17.0004H15.4C15.4 17.1595 15.4632 17.3121 15.5757 17.4247L16 17.0004ZM16.6 15.4004C16.6 15.069 16.3314 14.8004 16 14.8004C15.6686 14.8004 15.4 15.069 15.4 15.4004H16.6ZM16.5757 18.4247C16.8101 18.659 17.1899 18.659 17.4243 18.4247C17.6586 18.1903 17.6586 17.8104 17.4243 17.5761L16.5757 18.4247ZM10.4 6.20039H13.6V5.00039H10.4V6.20039ZM4.6 13.6004V12.0004H3.4V13.6004H4.6ZM3.4 13.6004C3.4 15.0919 3.39873 16.2709 3.52251 17.1916C3.64861 18.1295 3.9143 18.8887 4.51299 19.4874L5.36152 18.6389C5.02295 18.3003 4.82002 17.8366 4.71181 17.0317C4.60127 16.2096 4.6 15.1258 4.6 13.6004H3.4ZM13.6 6.20039C15.1255 6.20039 16.2092 6.20166 17.0313 6.3122C17.8362 6.42041 18.2999 6.62334 18.6385 6.96191L19.487 6.11338C18.8883 5.51469 18.1292 5.249 17.1912 5.1229C16.2705 4.99912 15.0915 5.00039 13.6 5.00039V6.20039ZM10.4 5.00039C8.90847 5.00039 7.72946 4.99912 6.80878 5.1229C5.87084 5.249 5.11168 5.51469 4.51299 6.11338L5.36152 6.96191C5.70009 6.62334 6.16381 6.42041 6.96868 6.3122C7.79081 6.20166 8.87454 6.20039 10.4 6.20039V5.00039ZM4.6 12.0004C4.6 10.4749 4.60127 9.3912 4.71181 8.56907C4.82002 7.7642 5.02295 7.30048 5.36152 6.96191L4.51299 6.11338C3.9143 6.71207 3.64861 7.47123 3.52251 8.40917C3.39873 9.32985 3.4 10.5089 3.4 12.0004H4.6ZM20.5943 10.4934C20.5697 8.49485 20.4539 7.08029 19.487 6.11338L18.6385 6.96191C19.2058 7.52921 19.3686 8.41417 19.3944 10.5082L20.5943 10.4934ZM9.00629 19.396C7.95142 19.3849 7.18228 19.346 6.58961 19.2255C6.01341 19.1085 5.64473 18.9221 5.36152 18.6389L4.51299 19.4874C5.00925 19.9837 5.61758 20.2526 6.3507 20.4015C7.06735 20.5471 7.93985 20.5848 8.99371 20.5959L9.00629 19.396ZM8.6 5.60039V4.40039H7.4V5.60039H8.6ZM16.6 5.60039V4.40039H15.4V5.60039H16.6ZM4.4 10.2004H19.6V9.00039H4.4V10.2004ZM19.4 17.0004C19.4 18.8782 17.8778 20.4004 16 20.4004V21.6004C18.5405 21.6004 20.6 19.5409 20.6 17.0004H19.4ZM16 20.4004C14.1222 20.4004 12.6 18.8782 12.6 17.0004H11.4C11.4 19.5409 13.4595 21.6004 16 21.6004V20.4004ZM12.6 17.0004C12.6 15.1226 14.1222 13.6004 16 13.6004V12.4004C13.4595 12.4004 11.4 14.4599 11.4 17.0004H12.6ZM16 13.6004C17.8778 13.6004 19.4 15.1226 19.4 17.0004H20.6C20.6 14.4599 18.5405 12.4004 16 12.4004V13.6004ZM16.6 17.0004V15.4004H15.4V17.0004H16.6ZM15.5757 17.4247L16.5757 18.4247L17.4243 17.5761L16.4243 16.5761L15.5757 17.4247Z" fill="#0166FF"/>
</svg>

<svg xmlns="http://www.w3.org/2000/svg" width="24" height="24" fill="none"><path fill="#0166FF" d="m4.937 19.063.425-.424zM19.063 6.538l.424-.425zm.331 3.97a.6.6 0 0 0 1.2-.015zm-10.4 10.088a.6.6 0 1 0 .012-1.2zM7.4 5.6a.6.6 0 0 0 1.2 0zm1.2-1.2a.6.6 0 0 0-1.2 0zm6.8 1.2a.6.6 0 1 0 1.2 0zm1.2-1.2a.6.6 0 1 0-1.2 0zM4.4 9a.6.6 0 0 0 0 1.2zm15.2 1.2a.6.6 0 1 0 0-1.2zM16 17h-.6a.6.6 0 0 0 .176.425zm.6-1.6a.6.6 0 1 0-1.2 0zm-.024 3.025a.6.6 0 0 0 .848-.849zM10.4 6.2h3.2V5h-3.2zm-5.8 7.4V12H3.4v1.6zm-1.2 0c0 1.492-.001 2.67.123 3.592.126.938.391 1.697.99 2.295l.849-.848c-.34-.339-.542-.802-.65-1.607-.11-.822-.112-1.906-.112-3.432zm10.2-7.4c1.526 0 2.61.002 3.431.112.805.108 1.269.311 1.608.65l.848-.849c-.599-.598-1.358-.864-2.296-.99-.92-.124-2.1-.123-3.591-.123zM10.4 5c-1.492 0-2.67 0-3.591.123-.938.126-1.697.392-2.296.99l.849.849c.338-.339.802-.542 1.607-.65.822-.11 1.906-.112 3.431-.112zm-5.8 7c0-1.525.001-2.609.112-3.43.108-.806.311-1.27.65-1.608l-.849-.849c-.599.6-.864 1.358-.99 2.296-.124.92-.123 2.1-.123 3.591zm15.994-1.507c-.024-1.998-.14-3.413-1.107-4.38l-.848.849c.567.567.73 1.452.755 3.546zM9.006 19.396c-1.055-.011-1.824-.05-2.416-.17-.577-.117-.945-.304-1.228-.587l-.849.848c.496.497 1.105.766 1.838.915.716.145 1.589.183 2.643.194zM8.6 5.6V4.4H7.4v1.2zm8 0V4.4h-1.2v1.2zM4.4 10.2h15.2V9H4.4zm15 6.8a3.4 3.4 0 0 1-3.4 3.4v1.2a4.6 4.6 0 0 0 4.6-4.6zM16 20.4a3.4 3.4 0 0 1-3.4-3.4h-1.2a4.6 4.6 0 0 0 4.6 4.6zM12.6 17a3.4 3.4 0 0 1 3.4-3.4v-1.2a4.6 4.6 0 0 0-4.6 4.6zm3.4-3.4a3.4 3.4 0 0 1 3.4 3.4h1.2a4.6 4.6 0 0 0-4.6-4.6zm.6 3.4v-1.6h-1.2V17zm-1.024.425 1 1 .848-.849-1-1z"/></svg>
